icons/lines/gallery-import.svg

<svg xmlns="http://www.w3.org/2000/svg" width="24" height="24" viewBox="0 0 24 24" fill="none" stroke="currentColor" stroke-width="2" stroke-linecap="round" stroke-linejoin="round" >
  <path d="M9 10C10.1046 10 11 9.10457 11 8C11 6.89543 10.1046 6 9 6C7.89543 6 7 6.89543 7 8C7 9.10457 7.89543 10 9 10Z"/>
  <path d="M13 2H9C4 2 2 4 2 9V15C2 20 4 22 9 22H15C20 22 22 20 22 15V10"/>
  <path d="M18 2V8L20 6"/>
  <path d="M18 8L16 6"/>
  <path d="M2.66992 18.95L7.59992 15.64C8.38992 15.11 9.52992 15.17 10.2399 15.78L10.5699 16.07C11.3499 16.74 12.6099 16.74 13.3899 16.07L17.5499 12.5C18.3299 11.83 19.5899 11.83 20.3699 12.5L21.9999 13.9"/>
  </svg>

<svg xmlns="http://www.w3.org/2000/svg" width="24" height="24" viewBox="0 0 24 24" fill="none" stroke="currentColor" stroke-width="2" stroke-linecap="round" stroke-linejoin="round">
  <path d="M13 2H9C4 2 2 4 2 9v6c0 5 2 7 7 7h6c5 0 7-2 7-7v-5" />
  <path d="M18 2v6l2-2" />
  <path d="m18 8-2-2" />
  <path d="m2.67 18.95 4.93-3.31c.79-.53 1.93-.47 2.64.14l.33.29c.78.67 2.04.67 2.82 0l4.16-3.57c.78-.67 2.04-.67 2.82 0L22 13.9" />
  <circle cx="9" cy="8" r="2" />
</svg>
